app/assets/images/heroicons/mini/flag.svg

<svg width="20" height="20" viewBox="0 0 20 20" fill="none" xmlns="http://www.w3.org/2000/svg">
<path d="M3.5 2.75C3.5 2.33579 3.16421 2 2.75 2C2.33579 2 2 2.33579 2 2.75V17.25C2 17.6642 2.33579 18 2.75 18C3.16421 18 3.5 17.6642 3.5 17.25V12.8585L5.15742 12.5096C6.60458 12.2049 8.11248 12.407 9.42842 13.0818C11.2723 14.0274 13.4125 14.2155 15.393 13.6061L17.4706 12.9668C17.7853 12.87 18 12.5793 18 12.25V3.75C18 3.52398 17.8981 3.31001 17.7226 3.1676C17.547 3.02519 17.3167 2.96952 17.0955 3.01609L14.7157 3.51709C13.3151 3.81195 11.8585 3.68564 10.5296 3.15406L10.0275 2.95322C8.42359 2.31166 6.66566 2.15921 4.97524 2.51509L3.5 2.82566V2.75Z" fill="#0F172A"/>
</svg>

<svg xmlns="http://www.w3.org/2000/svg" viewBox="0 0 20 20" fill="currentColor" aria-hidden="true" data-slot="icon">
  <path d="M3.5 2.75a.75.75 0 0 0-1.5 0v14.5a.75.75 0 0 0 1.5 0v-4.392l1.657-.348a6.449 6.449 0 0 1 4.271.572 7.948 7.948 0 0 0 5.965.524l2.078-.64A.75.75 0 0 0 18 12.25v-8.5a.75.75 0 0 0-.904-.734l-2.38.501a7.25 7.25 0 0 1-4.186-.363l-.502-.2a8.75 8.75 0 0 0-5.053-.439l-1.475.31V2.75Z"/>
</svg>
